X: 33939
T: Red-Haired Lass, The
R: reel
M: 4/4
K: Gmajor
DGGF G2 BG|~G2 BG AGEG|DGGF G2 BG|egdB cBAB|
DGGF G2 BG|~G2 BG AGEG|DGGF G2 BG|egdB c2 Bc||
d2 ed edgd|d2 ed BGBc|d2 ed edef|gedB c2 Bc|
d2 ed edgd|d2 ed BGBc|c2 cA (~B2 B)A|GABd egdB||

